X: 23405
T: Leprechaun Step, The
R: mazurka
M: 3/4
K: Edorian
|:EB BA cB|EB BA B2|EB BA cB|1 AG FG AB:|2 AG FG A^A||
|:BE EF GE|FE DE F2|EB BA cB|1 AG FG A^A:|2 AG FG AB||

